X:1
T:The Lass of Richmond Hill
M:C|
L:1/8
Q:80
C:
S:March
K:HP
|: a | \
A{Gdc}d{gdc}df | \
{g}e3/4d/4{g}c3/4d/4{g}e{gf}g | \
{fg}f/2d3/2{gBd}B{g}e |
{Gdc}d2{gcd}cB | \
{g}A{Gdc}d{gdc}d{g}f | \
{g}e3/4d/4{g}c3/4d/4{g}e/2f/2{g}e/2d/2 |
{gcd}c{g}A3/4c/4{gBd}B{e}G3/4B/4 | \
{g}A2{GAG}A :: \
{g}e/2d/2 |
{gcd}c{e}A{GAG}A{g}e3/4d/4 | \
{gcd}c{e}A{GAG}A{g}e3/4d/4 | \
{g}c{GdG}e3/4f/4{gf}g2 |
{fg}f2{g}e/2f/2{g}e/2d/2 | \
{gcd}c{e}A{GAG}A{g}e3/4d/4 | \
{g}c3/2{GdG}e/2{ag}a2 |
A{Gdc}d{g}f3/4e/4{g}d3/4c/4 | \
{Gdc}d2{gdc}d :: \
{gcd}c/2B/2 |
{g}A{Gdc}d{gdc}de | \
{g}f2{a}g/2f/2{g}e/2d/2 | \
{gcd}ce{A}ef |
{gf}g2a/2g/2f/2e/2 | \
{gf}g/2a/2e{Gdc}d{g}c3/4d/4 | \
{g}e/2d/2{g}c/2B/2{g}A{e}G |
{g}A{Gdc}d{g}c{GdG}e3/4f/4 | \
{Gdc}d2{gdc}d :|
